src/pages/User/Import/asset/file.0.svg

<svg fill="none" height="72" viewBox="0 0 72 72" width="72" xmlns="http://www.w3.org/2000/svg"><path d="m48.1094 23.5c-.2149 0-.3906.1758-.3906.3906v2.3438c0 .2148.1757.3906.3906.3906h6.25c.2148 0 .3906-.1758.3906-.3906v-2.3438c0-.2148-.1758-.3906-.3906-.3906zm0 5.4688c-.2149 0-.3906.1757-.3906.3906v2.3437c0 .2149.1757.3907.3906.3907h6.25c.2148 0 .3906-.1758.3906-.3907v-2.3437c0-.2149-.1758-.3906-.3906-.3906zm0 5.4687c-.2149 0-.3906.1758-.3906.3906v2.3438c0 .2148.1757.3906.3906.3906h6.25c.2148 0 .3906-.1758.3906-.3906v-2.3438c0-.2148-.1758-.3906-.3906-.3906z" fill="#dae1e8"/><path d="m59.5 43v18m0-18-7.5 6m7.5-6 7.5 6" stroke="#dae1e8" stroke-width="3"/><path clip-rule="evenodd" d="m39.125 15.6875h20.3125c.8643 0 1.5625.6982 1.5625 1.5625v20.3164h-3.125v-18.3633c0-.2148-.1758-.3906-.3906-.3906h-18.3594v4.2969c0 .2148.1758.3906.3906.3906h4.6875c.2149 0 .3907.1758.3907.3906v2.3438c0 .2148-.1758.3906-.3907.3906h-4.6875c-.2148 0-.3906.1758-.3906.3906v1.5625c0 .2148.1758.3906.3906.3906h4.6875c.2149 0 .3907.1758.3907.3907v2.3437c0 .2148-.1758.3906-.3907.3906h-4.6875c-.2148 0-.3906.1758-.3906.3907v1.5625c0 .2148.1758.3906.3906.3906h4.6875c.2149 0 .3907.1758.3907.3906v2.3438c0 .2148-.1758.3906-.3907.3906h-4.6875c-.2148 0-.3906.1758-.3906.3906v1.5625c0 .2148.1758.3906.3906.3906h4.6875c.2149 0 .3907.1758.3907.3907v2.3437c0 .2148-.1758.3906-.3907.3906h-4.6875c-.2148 0-.3906.1758-.3906.3907v1.5625c0 .2148.1758.3906.3906.3906h4.6875c.2149 0 .3907.1758.3907.3906v2.3438c0 .2148-.1758.3906-.3907.3906h-4.6875c-.2148 0-.3906.1758-.3906.3906v4.2969h8.6049v3.125h-8.6049v.8984c0 1.9629-1.792 3.4424-3.7207 3.0664l-21.875-4.2529c-1.4697-.2832-2.5293-1.5723-2.5293-3.0664v-33.9209c0-1.4941 1.0547-2.7783 2.5195-3.0664l21.875-4.3311c1.9287-.3808 3.7305 1.0987 3.7305 3.0664zm-17.8564 20.7226-3.6817 6.9385c-.1269.2344.0147.5225.2735.5811l2.0996.3662c.3466.0635.6884-.1123.8398-.4297l2.3096-4.8047c.1806-.5078.2978-.8936.3515-1.167h.0391c.1074.5615.21.9522.3076 1.1719l2.7588 6.04c.1074.2344.3223.4004.5762.4444l3.5498.625c.3222.0537.5713-.2881.4101-.5762l-5.1171-9.2285c-.127-.2344-.127-.5225 0-.7569l4.9755-9.0576c.1563-.2881-.0879-.6299-.4101-.5713l-3.2764.5762c-.2539.044-.4687.21-.5762.4443l-2.5439 5.5274c-.2051.5517-.376 1.0693-.5127 1.5576h-.0391c-.1318-.5273-.288-1.001-.4687-1.4307l-1.8994-4.4238c-.1465-.332-.4981-.5225-.8545-.459l-2.207.3858c-.254.0439-.3956.3222-.2833.5566l3.3936 6.9824c.1074.2246.1025.4883-.0146.708z" fill="#dae1e8" fill-rule="evenodd"/></svg>

<svg width="72" height="72" viewBox="0 0 72 72" fill="none" xmlns="http://www.w3.org/2000/svg">
    <path d="M48.1094 23.5C47.8945 23.5 47.7188 23.6758 47.7188 23.8906V26.2344C47.7188 26.4492 47.8945 26.625 48.1094 26.625H54.3594C54.5742 26.625 54.75 26.4492 54.75 26.2344V23.8906C54.75 23.6758 54.5742 23.5 54.3594 23.5H48.1094ZM48.1094 28.9688C47.8945 28.9688 47.7188 29.1445 47.7188 29.3594V31.7031C47.7188 31.918 47.8945 32.0938 48.1094 32.0938H54.3594C54.5742 32.0938 54.75 31.918 54.75 31.7031V29.3594C54.75 29.1445 54.5742 28.9688 54.3594 28.9688H48.1094ZM48.1094 34.4375C47.8945 34.4375 47.7188 34.6133 47.7188 34.8281V37.1719C47.7188 37.3867 47.8945 37.5625 48.1094 37.5625H54.3594C54.5742 37.5625 54.75 37.3867 54.75 37.1719V34.8281C54.75 34.6133 54.5742 34.4375 54.3594 34.4375H48.1094Z"
          fill="#DAE1E8"/>
    <path d="M59.5 43V61M59.5 43L52 49M59.5 43L67 49" stroke="#DAE1E8" stroke-width="3"/>
    <path fill-rule="evenodd" clip-rule="evenodd"
          d="M39.125 15.6875H59.4375C60.3018 15.6875 61 16.3857 61 17.25V37.5664H57.875V19.2031C57.875 18.9883 57.6992 18.8125 57.4844 18.8125H39.125V23.1094C39.125 23.3242 39.3008 23.5 39.5156 23.5H44.2031C44.418 23.5 44.5938 23.6758 44.5938 23.8906V26.2344C44.5938 26.4492 44.418 26.625 44.2031 26.625H39.5156C39.3008 26.625 39.125 26.8008 39.125 27.0156V28.5781C39.125 28.7929 39.3008 28.9687 39.5156 28.9687H44.2031C44.418 28.9687 44.5938 29.1445 44.5938 29.3594V31.7031C44.5938 31.9179 44.418 32.0937 44.2031 32.0937H39.5156C39.3008 32.0937 39.125 32.2695 39.125 32.4844V34.0469C39.125 34.2617 39.3008 34.4375 39.5156 34.4375H44.2031C44.418 34.4375 44.5938 34.6133 44.5938 34.8281V37.1719C44.5938 37.3867 44.418 37.5625 44.2031 37.5625H39.5156C39.3008 37.5625 39.125 37.7383 39.125 37.9531V39.5156C39.125 39.7304 39.3008 39.9062 39.5156 39.9062H44.2031C44.418 39.9062 44.5938 40.082 44.5938 40.2969V42.6406C44.5938 42.8554 44.418 43.0312 44.2031 43.0312H39.5156C39.3008 43.0312 39.125 43.207 39.125 43.4219V44.9844C39.125 45.1992 39.3008 45.375 39.5156 45.375H44.2031C44.418 45.375 44.5938 45.5508 44.5938 45.7656V48.1094C44.5938 48.3242 44.418 48.5 44.2031 48.5H39.5156C39.3008 48.5 39.125 48.6758 39.125 48.8906V53.1875H47.7299V56.3125H39.125V57.2109C39.125 59.1738 37.333 60.6533 35.4043 60.2773L13.5293 56.0244C12.0596 55.7412 11 54.4521 11 52.958V19.0371C11 17.543 12.0547 16.2588 13.5195 15.9707L35.3945 11.6396C37.3232 11.2588 39.125 12.7383 39.125 14.706V15.6875ZM21.2686 36.4101L17.5869 43.3486C17.46 43.583 17.6016 43.8711 17.8604 43.9297L19.96 44.2959C20.3066 44.3594 20.6484 44.1836 20.7998 43.8662L23.1094 39.0615C23.29 38.5537 23.4072 38.1679 23.4609 37.8945H23.5C23.6074 38.456 23.71 38.8467 23.8076 39.0664L26.5664 45.1064C26.6738 45.3408 26.8887 45.5068 27.1426 45.5508L30.6924 46.1758C31.0146 46.2295 31.2637 45.8877 31.1025 45.5996L25.9854 36.3711C25.8584 36.1367 25.8584 35.8486 25.9854 35.6142L30.9609 26.5566C31.1172 26.2685 30.873 25.9267 30.5508 25.9853L27.2744 26.5615C27.0205 26.6055 26.8057 26.7715 26.6982 27.0058L24.1543 32.5332C23.9492 33.0849 23.7783 33.6025 23.6416 34.0908H23.6025C23.4707 33.5635 23.3145 33.0898 23.1338 32.6601L21.2344 28.2363C21.0879 27.9043 20.7363 27.7138 20.3799 27.7773L18.1729 28.1631C17.9189 28.207 17.7773 28.4853 17.8896 28.7197L21.2832 35.7021C21.3906 35.9267 21.3857 36.1904 21.2686 36.4101Z"
          fill="#DAE1E8"/>
</svg>
